build/system/CloudSolid.svg

<svg xmlns="http://www.w3.org/2000/svg" fill="none" viewBox="0 0 24 24" focusable="false"><path d="M0 0H24V24H0z"/><path fill="#74767B" d="M5.33569 18.9754C3.49533 18.9754 2.00342 17.4835 2.00342 15.6431C2.00342 13.9651 3.24364 12.5768 4.85741 12.3449C4.89394 12.3396 4.93018 12.3316 4.96521 12.32C5.23815 12.2299 5.39923 11.9518 5.36934 11.6659C5.34726 11.4547 5.33594 11.2403 5.33594 11.0232C5.33594 7.64923 8.07111 4.91406 11.4451 4.91406C14.3028 4.91406 16.7021 6.87611 17.3696 9.52656C17.4341 9.78258 17.6158 9.99734 17.8665 10.0801C17.9193 10.0975 17.9742 10.1086 18.0294 10.1144C20.2597 10.3517 21.9971 12.2391 21.9971 14.5323C21.9971 16.986 20.0079 18.9753 17.5543 18.9755L5.33569 18.9754Z"/></svg>

<svg xmlns="http://www.w3.org/2000/svg" fill="none" viewBox="0 0 24 24" focusable="false"><path fill="#74767B" d="M5.33 18.97C3.49 18.97 2 17.48 2 15.64c0-1.68 1.24-3.07 2.85-3.3.04-.01.08-.01.11-.02.27-.1.43-.37.4-.66-.02-.21-.03-.42-.03-.64a6.11 6.11 0 0 1 6.11-6.11c2.86 0 5.26 1.96 5.92 4.61.07.26.25.47.5.56l.16.03a4.443 4.443 0 0 1-.47 8.86z"/></svg>
